X: 11212
T: Dunstanburgh Castle
R: hornpipe
M: 4/4
K: Amajor
|:EFA2 AEAc|BAF2 E2E2|ABc2 cAce|cAc2 B2B2|
EFAE AEAc|BAdc defg|afec fedB|edc2 A2A2:|
|:cded cdea|edc2 e2e2|cBAB cde2|c2 B4 c2-|
cBAB cde2|fgaf afe2|fgag afef|edc2 A2A2:|

